Newaita-dark/actions/24/distribute-vertical-equal.svg

<svg height="24" viewBox="0 0 24 24" width="24" xmlns="http://www.w3.org/2000/svg"><g fill="#e0e0e0"><path d="m16.867188 4.652344c0-.550782-.441407-.992188-.992188-.992188h-4.960938c-.546874 0-.992187.441406-.992187.992188v4.960937c0 .550781.445313.992188.992187.992188h4.960938c.550781 0 .992188-.441407.992188-.992188zm-1.984376 1.488281v1.984375c0 .277344-.21875.496094-.496093.496094h-1.984375c-.273438 0-.496094-.21875-.496094-.496094v-1.984375c0-.273437.222656-.496094.496094-.496094h1.984375c.277343 0 .496093.222657.496093.496094zm0 0"/><path d="m21.832031 9.117188v.992187c0 .273437-.222656.496094-.496093.496094h-18.855469c-.273438 0-.496094-.222657-.496094-.496094v-.992187c0-.273438.222656-.496094.496094-.496094h18.855469c.273437 0 .496093.222656.496093.496094zm0 0"/><path d="m16.867188 14.574219c0-.546875-.441407-.992188-.992188-.992188h-8.433594c-.550781 0-.992187.445313-.992187.992188v4.960937c0 .550782.441406.996094.992187.996094h8.433594c.550781 0 .992188-.445312.992188-.996094zm-1.984376 1.488281v1.984375c0 .277344-.21875.496094-.496093.496094h-5.457031c-.273438 0-.496094-.21875-.496094-.496094v-1.984375c0-.273438.222656-.496094.496094-.496094h5.457031c.277343 0 .496093.222656.496093.496094zm0 0"/><path d="m21.832031 14.078125v.992187c0 .277344-.222656.496094-.496093.496094h-18.855469c-.273438 0-.496094-.21875-.496094-.496094v-.992187c0-.273437.222656-.496094.496094-.496094h18.855469c.273437 0 .496093.222657.496093.496094zm0 0"/><path d="m21.832031 22.019531h-3.972656l1.984375-2.484375zm0 0"/><path d="m21.832031 2.171875h-3.972656l1.984375 2.480469zm0 0"/></g></svg>

<?xml version="1.0" encoding="UTF-8"?>
<svg xmlns="http://www.w3.org/2000/svg" xmlns:xlink="http://www.w3.org/1999/xlink" width="24px" height="24px" viewBox="0 0 24 24" version="1.1">
<g id="surface1">
<path style=" stroke:none;fill-rule:nonzero;fill:rgb(87.843138%,87.843138%,87.843138%);fill-opacity:1;" d="M 16.867188 4.652344 C 16.867188 4.101562 16.425781 3.660156 15.875 3.660156 L 10.914062 3.660156 C 10.367188 3.660156 9.921875 4.101562 9.921875 4.652344 L 9.921875 9.613281 C 9.921875 10.164062 10.367188 10.605469 10.914062 10.605469 L 15.875 10.605469 C 16.425781 10.605469 16.867188 10.164062 16.867188 9.613281 Z M 14.882812 6.140625 L 14.882812 8.125 C 14.882812 8.402344 14.664062 8.621094 14.386719 8.621094 L 12.402344 8.621094 C 12.128906 8.621094 11.90625 8.402344 11.90625 8.125 L 11.90625 6.140625 C 11.90625 5.867188 12.128906 5.644531 12.402344 5.644531 L 14.386719 5.644531 C 14.664062 5.644531 14.882812 5.867188 14.882812 6.140625 Z M 14.882812 6.140625 "/>
<path style=" stroke:none;fill-rule:nonzero;fill:rgb(87.843138%,87.843138%,87.843138%);fill-opacity:1;" d="M 21.832031 9.117188 L 21.832031 10.109375 C 21.832031 10.382812 21.609375 10.605469 21.335938 10.605469 L 2.480469 10.605469 C 2.207031 10.605469 1.984375 10.382812 1.984375 10.109375 L 1.984375 9.117188 C 1.984375 8.84375 2.207031 8.621094 2.480469 8.621094 L 21.335938 8.621094 C 21.609375 8.621094 21.832031 8.84375 21.832031 9.117188 Z M 21.832031 9.117188 "/>
<path style=" stroke:none;fill-rule:nonzero;fill:rgb(87.843138%,87.843138%,87.843138%);fill-opacity:1;" d="M 16.867188 14.574219 C 16.867188 14.027344 16.425781 13.582031 15.875 13.582031 L 7.441406 13.582031 C 6.890625 13.582031 6.449219 14.027344 6.449219 14.574219 L 6.449219 19.535156 C 6.449219 20.085938 6.890625 20.53125 7.441406 20.53125 L 15.875 20.53125 C 16.425781 20.53125 16.867188 20.085938 16.867188 19.535156 Z M 14.882812 16.0625 L 14.882812 18.046875 C 14.882812 18.324219 14.664062 18.542969 14.386719 18.542969 L 8.929688 18.542969 C 8.65625 18.542969 8.433594 18.324219 8.433594 18.046875 L 8.433594 16.0625 C 8.433594 15.789062 8.65625 15.566406 8.929688 15.566406 L 14.386719 15.566406 C 14.664062 15.566406 14.882812 15.789062 14.882812 16.0625 Z M 14.882812 16.0625 "/>
<path style=" stroke:none;fill-rule:nonzero;fill:rgb(87.843138%,87.843138%,87.843138%);fill-opacity:1;" d="M 21.832031 14.078125 L 21.832031 15.070312 C 21.832031 15.347656 21.609375 15.566406 21.335938 15.566406 L 2.480469 15.566406 C 2.207031 15.566406 1.984375 15.347656 1.984375 15.070312 L 1.984375 14.078125 C 1.984375 13.804688 2.207031 13.582031 2.480469 13.582031 L 21.335938 13.582031 C 21.609375 13.582031 21.832031 13.804688 21.832031 14.078125 Z M 21.832031 14.078125 "/>
<path style=" stroke:none;fill-rule:nonzero;fill:rgb(87.843138%,87.843138%,87.843138%);fill-opacity:1;" d="M 21.832031 22.019531 L 17.859375 22.019531 L 19.84375 19.535156 Z M 21.832031 22.019531 "/>
<path style=" stroke:none;fill-rule:nonzero;fill:rgb(87.843138%,87.843138%,87.843138%);fill-opacity:1;" d="M 21.832031 2.171875 L 17.859375 2.171875 L 19.84375 4.652344 Z M 21.832031 2.171875 "/>
</g>
</svg>
